assets/icons/24px/stroke/github-24px.svg

<svg width="24" height="24" viewBox="0 0 24 24" fill="none" xmlns="http://www.w3.org/2000/svg">
<path d="M9.60037 3.20487C9.61833 3.21532 9.64131 3.21902 9.66197 3.21454C11.6554 2.78181 13.7292 2.78181 15.7226 3.21454C15.7433 3.21902 15.7663 3.21532 15.7842 3.20487C17.2639 2.3434 18.3106 2.07143 18.9842 2.01311C19.8114 1.94149 20.4377 2.4938 20.6522 3.13869C20.9415 4.00825 20.9887 4.93277 20.7905 5.82329C20.7642 5.94128 20.794 6.05819 20.8533 6.13499C21.5902 7.08865 21.9998 8.24731 22 9.45211C22 11.7009 21.3493 13.3261 20.2152 14.4457C19.2176 15.4306 17.9442 15.925 16.7104 16.1921C16.8836 16.6722 16.9605 17.1882 16.9231 17.7075L16.9231 21.0001C16.9231 21.5523 16.4754 22.0001 15.9231 22.0001C15.3708 22.0001 14.9231 21.5523 14.9231 21.0001L14.9231 17.6686C14.9231 17.6404 14.9243 17.6121 14.9267 17.584C14.9507 17.3012 14.8982 17.0061 14.7715 16.7302C14.5509 16.2494 14.5835 15.7204 14.7549 15.3035C14.9273 14.884 15.3147 14.4188 15.9497 14.3042C17.1248 14.0922 18.114 13.7096 18.8102 13.0224C19.4797 12.3614 20 11.2967 20 9.45251C19.9998 8.70571 19.7467 7.9738 19.2707 7.35783C18.8337 6.79218 18.6881 6.06317 18.8383 5.38868C18.9361 4.9491 18.9349 4.49601 18.8347 4.05679C18.4266 4.14592 17.7556 4.37136 16.7906 4.93326C16.3404 5.19534 15.807 5.27944 15.2984 5.16902C13.5845 4.79698 11.8001 4.79698 10.0862 5.16902C9.57757 5.27944 9.04418 5.22356 8.59405 4.96148C7.62897 4.39959 6.95805 4.17415 6.5499 4.08501C6.4497 4.52423 6.44849 4.97732 6.54635 5.4169C6.69651 6.09139 6.55094 6.8204 6.11388 7.38605C5.63793 8.00202 5.38482 8.73116 5.38463 9.47796C5.38461 11.309 5.90574 12.3668 6.57892 13.0272C7.28045 13.7154 8.27725 14.1015 9.46062 14.3236C10.0908 14.4419 10.4746 14.9049 10.6445 15.3256C10.8132 15.743 10.8406 16.269 10.6189 16.7453C10.4916 17.0188 10.4373 17.3117 10.4587 17.5929C10.4606 17.6181 10.4615 17.6433 10.4615 17.6686L10.4615 18.8636C10.4619 18.8785 10.4619 18.8933 10.4615 18.908L10.4616 21.0001C10.4616 21.5523 10.0138 22.0001 9.46156 22.0001C8.90927 22.0001 8.46155 21.5523 8.46155 21.0001L8.46155 20.104C7.73111 20.1892 7.08567 20.1458 6.50732 19.9919C5.60835 19.7528 4.97096 19.2729 4.48791 18.7935C4.25175 18.5592 4.04666 18.3188 3.87469 18.1151L3.82809 18.0599L3.82801 18.0598C3.66913 17.8714 3.54612 17.7256 3.423 17.5991C3.15946 17.3285 3.05803 17.3203 3 17.3203C2.44772 17.3203 2 16.8726 2 16.3203C2 15.768 2.44772 15.3203 3 15.3203C3.86505 15.3203 4.45592 15.7931 4.85585 16.2038C5.03222 16.3849 5.20291 16.5875 5.35201 16.7645L5.35222 16.7648L5.40295 16.825C5.57353 17.027 5.72901 17.2075 5.8967 17.3739C6.22134 17.6961 6.56472 17.9376 7.02152 18.0592C7.36488 18.1505 7.82643 18.1882 8.46154 18.0852L8.46154 17.7034C8.42843 17.1894 8.50707 16.6794 8.67999 16.2049C7.44863 15.93 6.17631 15.4339 5.17833 14.4549C4.04072 13.3389 3.38516 11.7214 3.38461 9.48074C3.38485 8.27594 3.7944 7.11687 4.53127 6.16321C4.59061 6.0864 4.62041 5.9695 4.59415 5.85151C4.3959 4.96099 4.44314 4.03647 4.7324 3.16691C4.94693 2.52202 5.57324 1.96971 6.40044 2.04133C7.07405 2.09965 8.12076 2.3434 9.60037 3.20487Z" fill="white"/>
</svg>

<svg width="24" height="24" fill="none" xmlns="http://www.w3.org/2000/svg"><path d="M9.6 3.205c.018.01.041.014.062.01a14.31 14.31 0 0 1 6.06 0c.021.004.044 0 .062-.01 1.48-.862 2.527-1.134 3.2-1.192.827-.072 1.454.48 1.668 1.126.29.87.337 1.794.139 2.684a.382.382 0 0 0 .062.312A5.421 5.421 0 0 1 22 9.452c0 2.249-.65 3.874-1.785 4.994-.997.985-2.27 1.479-3.505 1.746.174.48.25.996.213 1.515V21a1 1 0 0 1-2 0V17.67c0-.029.001-.057.004-.085a1.707 1.707 0 0 0-.155-.854 1.806 1.806 0 0 1-.017-1.427c.172-.419.56-.884 1.195-.999 1.175-.212 2.164-.594 2.86-1.282.67-.66 1.19-1.725 1.19-3.57 0-.746-.253-1.478-.73-2.094a2.382 2.382 0 0 1-.432-1.97c.098-.439.097-.892-.003-1.331-.408.089-1.08.314-2.044.876-.45.262-.984.346-1.493.236a12.31 12.31 0 0 0-5.212 0c-.508.11-1.042.055-1.492-.208-.965-.561-1.636-.787-2.044-.876-.1.44-.102.892-.004 1.332.15.674.005 1.403-.432 1.97a3.415 3.415 0 0 0-.73 2.091c0 1.831.522 2.889 1.195 3.55.701.687 1.698 1.073 2.882 1.296.63.118 1.014.58 1.184 1.002.168.417.196.943-.026 1.42a1.708 1.708 0 0 0-.16.847c.002.025.002.05.002.076V21a1 1 0 0 1-2 0v-.896c-.73.085-1.375.042-1.954-.112-.899-.24-1.536-.72-2.02-1.198a10.262 10.262 0 0 1-.612-.679l-.047-.055a8.888 8.888 0 0 0-.405-.46c-.264-.272-.365-.28-.423-.28a1 1 0 1 1 0-2c.865 0 1.456.473 1.856.884.176.18.347.383.496.56l.05.061c.172.202.327.383.495.549.324.322.668.564 1.125.685.343.091.804.13 1.44.026v-.382a3.687 3.687 0 0 1 .218-1.498c-1.231-.275-2.504-.771-3.502-1.75-1.137-1.116-1.793-2.734-1.793-4.974 0-1.205.41-2.364 1.146-3.318a.382.382 0 0 0 .063-.311 5.028 5.028 0 0 1 .138-2.685c.215-.645.841-1.197 1.668-1.126.674.059 1.72.302 3.2 1.164z" fill="#fff"/></svg>
